material/.icons/material/camera-wireless-outline.svg

<svg xmlns="http://www.w3.org/2000/svg" viewBox="0 0 24 24"><path d="M20 9v11H4V8h4.05l1.83-2H15V4H9L7.17 6H4a2 2 0 00-2 2v12a2 2 0 002 2h16a2 2 0 002-2V9h-2m.67-1H22c0-3.32-2.69-6-6-6v1.33c2.58 0 4.66 2.08 4.67 4.67M18 8h1.33A3.329 3.329 0 0016 4.67V6c1.11 0 2 .89 2 2M7 14a5 5 0 005 5 5 5 0 005-5 5 5 0 00-5-5 5 5 0 00-5 5m8 0a3 3 0 01-3 3 3 3 0 01-3-3 3 3 0 013-3 3 3 0 013 3z"/></svg>

<?xml version="1.0" encoding="UTF-8"?><!DOCTYPE svg PUBLIC "-//W3C//DTD SVG 1.1//EN" "http://www.w3.org/Graphics/SVG/1.1/DTD/svg11.dtd"><svg xmlns="http://www.w3.org/2000/svg" xmlns:xlink="http://www.w3.org/1999/xlink" version="1.1" id="mdi-camera-wireless-outline" width="24" height="24" viewBox="0 0 24 24"><path d="M20,9V20H4V8H8.05L9.88,6H15V4H9L7.17,6H4A2,2 0 0,0 2,8V20A2,2 0 0,0 4,22H20A2,2 0 0,0 22,20V9H20M20.67,8H22C22,4.68 19.31,2 16,2V3.33C18.58,3.33 20.66,5.41 20.67,8M18,8H19.33C19.32,6.15 17.84,4.67 16,4.67V6C17.11,6 18,6.89 18,8M7,14A5,5 0 0,0 12,19A5,5 0 0,0 17,14A5,5 0 0,0 12,9A5,5 0 0,0 7,14M15,14A3,3 0 0,1 12,17A3,3 0 0,1 9,14A3,3 0 0,1 12,11A3,3 0 0,1 15,14Z" /></svg>
